common/src/main/resources/icons/plugins/markdown/Cycle_editor_preview.svg

<svg xmlns="http://www.w3.org/2000/svg" width="16" height="16" fill="#81C784" data-big="true" viewBox="0 0 24 24"><path d="M13 5h8v14h-8zM3 5h8v2H3zm0 6V9h8v2zm0 8v-2h8v2zm0-4v-2h8v2z"/></svg>

<!--
  - The MIT License (MIT)
  -
  - Copyright (c) 2015-2024 Elior "Mallowigi" Boukhobza
  -
  - Permission is hereby granted, free of charge, to any person obtaining a copy
  - of this software and associated documentation files (the "Software"), to deal
  - in the Software without restriction, including without limitation the rights
  - to use, copy, modify, merge, publish, distribute, sublicense, and/or sell
  - copies of the Software, and to permit persons to whom the Software is
  - furnished to do so, subject to the following conditions:
  -
  - The above copyright notice and this permission notice shall be included in all
  - copies or substantial portions of the Software.
  -
  - THE SOFTWARE IS PROVIDED "AS IS", WITHOUT WARRANTY OF ANY KIND, EXPRESS OR
  - IMPLIED, INCLUDING BUT NOT LIMITED TO THE WARRANTIES OF MERCHANTABILITY,
  - FITNESS FOR A PARTICULAR PURPOSE AND NONINFRINGEMENT. IN NO EVENT SHALL THE
  - AUTHORS OR COPYRIGHT HOLDERS BE LIABLE FOR ANY CLAIM, DAMAGES OR OTHER
  - LIABILITY, WHETHER IN AN ACTION OF CONTRACT, TORT OR OTHERWISE, ARISING FROM,
  - OUT OF OR IN CONNECTION WITH THE SOFTWARE OR THE USE OR OTHER DEALINGS IN THE
  - SOFTWARE.
  -->


<svg data-big="true" xmlns="http://www.w3.org/2000/svg" fill="#81C784" version="1.1" width="16px" height="16px"
     viewBox="0 0 24 24">
  <path d="M13,5H21V19H13V5M3,5H11V7H3V5M3,11V9H11V11H3M3,19V17H11V19H3M3,15V13H11V15H3Z"/>
</svg>
